X:8
T:No.18 The Jug Of Punch
C:reel
M:4/4
L:1/8
K:D
B,EEE E2FA|B2BA BdAG|FB,B,B, DEFG|
AdBA GEFD|B,EEFG2EF|GEFE DEFA|
d2fe dBAF|1GEFDE3D:|2GEFDE3d||
Beefg2ge|fafe dBBB|AFAB dcde|
faba fedB|Beefg2eg|fAfe dBBc|
d3B=c2BA|GEFDE3d||B2edB2ge|
fgfe dBBB|AFAB dcde|faba fedB|
Beefg2eg|fAfe dBBc|d3B=c2BA|GEFDE4||
